!!!OTL: Fy Gar Rub Her O'er Wi' Strae
!!!id: HA007
**kern
*clefF4
*k[f#]
*E:
*M2/2
{8f#
=1
4.g#
8f#
4e
4b
=2
8a
8b
8g#
8a
4f#
8e
8d#}
=3yy
{4.g#
8a
4b
4dd#
=4
8b
8a
8g#
8f#
4.e}
{8f#
=5
4.g#
8f#
4e
4b
=6
8a
8b
8g#
8a
4f#
8e
8d#}
=7yy
{4.g#
8a
4b
4dd#
=8
8b
8a
8g#
8f#
4.e}
{8ee
=9
4dd#
4b
4b
8a
8g#
=10
8f#
8g#
8a
8g#
8g#
8f#}
{8e
8d#
=11
4dd#
4b
4b
4dd#
=12
8ee
8dd#
8b
8dd#
4.ee}
{8gg#
=13
4dd#
4b
4b
8a
8g#
=14
8f#
8g#
8a
8g#
8g#
8f#}
{8e
8d#
=15
4.g#
8a
4b
4ee
=16
8b
8a
8g#
8f#
4.e}
==
*-
!!!minrhy: 8
!!!meter: 2/2
!!!cut: Fy Gar Rub Her O'er Wi' Strae
!!!key: HA007  08  e 2/2
!!!bem: Vorschlge, Bindungen weggelassen
!!!fog: a--b--av-b--c--d--cv-bv-
!! Haydn: Volksliedbearbeitungen, Bd1
